Papirus/64x64/apps/civilization6.svg

<?xml version="1.0" encoding="UTF-8" standalone="no"?>
<svg
   id="_图层_1"
   version="1.1"
   viewBox="0 0 64 64" width="64" height="64"
   sodipodi:docname="civilization6.svg"
   xml:space="preserve"
   inkscape:version="1.4 (e7c3feb100, 2024-10-09)"
   xmlns:inkscape="http://www.inkscape.org/namespaces/inkscape"
   xmlns:sodipodi="http://sodipodi.sourceforge.net/DTD/sodipodi-0.dtd"
   xmlns="http://www.w3.org/2000/svg"
   xmlns:svg="http://www.w3.org/2000/svg"><sodipodi:namedview
     id="namedview26"
     pagecolor="#505050"
     bordercolor="#eeeeee"
     borderopacity="1"
     inkscape:showpageshadow="0"
     inkscape:pageopacity="0"
     inkscape:pagecheckerboard="0"
     inkscape:deskcolor="#505050"
     inkscape:zoom="10.6875"
     inkscape:cx="32"
     inkscape:cy="32"
     inkscape:window-width="1920"
     inkscape:window-height="939"
     inkscape:window-x="0"
     inkscape:window-y="34"
     inkscape:window-maximized="1"
     inkscape:current-layer="_图层_1" /><!-- Generator: Adobe Illustrator 29.0.1, SVG Export Plug-In . SVG Version: 2.1.0 Build 192)  --><defs
     id="defs6"><style
       id="style1">
      .st0 {
        fill-opacity: .5;
      }

      .st0, .st1, .st2, .st3, .st4, .st5, .st6, .st7 {
        fill: #fff;
      }

      .st8 {
        fill: #133c9a;
      }

      .st2, .st9 {
        display: none;
      }

      .st3 {
        fill-opacity: .2;
      }

      .st4 {
        fill-opacity: .9;
      }

      .st10 {
        fill: #3370ff;
      }

      .st11 {
        fill: url(#_未命名的渐变_3);
      }

      .st12 {
        fill: url(#_未命名的渐变);
      }

      .st5 {
        fill-opacity: .3;
      }

      .st6 {
        fill-opacity: 0;
      }

      .st7 {
        fill-opacity: .7;
      }

      .st13 {
        fill: #00d6b9;
      }

      .st14 {
        fill: url(#_未命名的渐变_2);
      }
    </style><radialGradient
       id="_未命名的渐变"
       data-name="未命名的渐变"
       cx="123.9"
       cy="-40.2"
       fx="123.9"
       fy="-40.2"
       r="59.4"
       gradientTransform="translate(-26.8 25.5) scale(.6 -.7)"
       gradientUnits="userSpaceOnUse"><stop
         offset="0"
         stop-color="#db202e"
         id="stop1" /><stop
         offset="1"
         stop-color="#e01b24"
         id="stop2" /></radialGradient><radialGradient
       id="_未命名的渐变_2"
       data-name="未命名的渐变 2"
       cx="67.6"
       cy="26.8"
       fx="67.6"
       fy="26.8"
       r="105.2"
       gradientTransform="translate(-26.6 25.3) scale(.6 -.7)"
       gradientUnits="userSpaceOnUse"><stop
         offset="0"
         stop-color="#ffb648"
         id="stop3" /><stop
         offset="1"
         stop-color="#ff7800"
         stop-opacity="0"
         id="stop4" /></radialGradient><radialGradient
       id="_未命名的渐变_3"
       data-name="未命名的渐变 3"
       cx="61.7"
       cy="18.6"
       fx="61.7"
       fy="18.6"
       r="68"
       gradientTransform="translate(-26.8 25.8) scale(.6 -.7)"
       gradientUnits="userSpaceOnUse"><stop
         offset="0"
         stop-color="#c64600"
         id="stop5" /><stop
         offset="1"
         stop-color="#a51d2d"
         id="stop6" /></radialGradient></defs><path
     class="st1"
     d="M47.5,64.1H13.8c-7.6,0-13.8-6.3-13.8-13.8V13.7C0,6.2,6.2,0,13.7,0h36.6c7.5,0,13.7,6.2,13.7,13.7v36.6c0,7.5-6.2,13.7-13.7,13.7h-2.9.1Z"
     id="path6"
     style="fill:#e4e4e4;fill-opacity:1" /><g
     id="g26"
     transform="translate(-1.5732702,1.4436923)"><path
       style="opacity:0.2"
       d="M 53.910156,10.916213 A 6.0006,6.0006 0 0 0 48,17.000197 v 32 a 6.0006,6.0006 0 1 0 12,0 v -32 a 6.0006,6.0006 0 0 0 -6.089844,-6.083984 z m -15.896484,0.0059 a 6.0006,6.0006 0 0 0 -5.511719,3.675781 l -8.488281,19.431641 -8.517578,-19.4375 A 6.0006,6.0006 0 0 0 9.796875,10.924025 6.0006,6.0006 0 0 0 4.5039062,19.4084 L 18.199219,50.660353 a 6.0006,6.0006 0 0 0 4.164062,4.189453 6.0006,6.0006 0 0 0 0.308594,0.07813 6.0006,6.0006 0 0 0 0.185547,0.04102 6.0006,6.0006 0 0 0 7.023437,-4.394531 L 43.498047,19.402541 a 6.0006,6.0006 0 0 0 -5.484375,-8.480469 z"
       id="path1" /><path
       style="fill:none;stroke:#c0562a;stroke-width:12;stroke-linecap:round;stroke-linejoin:round"
       d="M 10,16 24.022016,48"
       id="path2" /><path
       style="opacity:0.1;fill:#ffffff"
       d="m 9.796875,9.9238281 a 6.0006,6.0006 0 0 0 -5.8046875,6.5058599 6.0006,6.0006 0 0 1 5.8046875,-5.50586 6.0006,6.0006 0 0 1 5.699219,3.667969 l 14.021484,32 a 6.0006,6.0006 0 0 1 0.519531,2.001953 6.0006,6.0006 0 0 0 -0.519531,-3.001953 l -14.021484,-32 A 6.0006,6.0006 0 0 0 9.796875,9.9238281 Z"
       id="path3" /><path
       style="fill:none;stroke:#c0562a;stroke-width:12;stroke-linecap:round;stroke-linejoin:round"
       d="M 54,16 V 48"
       id="path4" /><path
       style="fill:none;stroke:#ea8c46;stroke-width:12;stroke-linecap:round;stroke-linejoin:round"
       d="M 38,16 24.022016,48"
       id="path5" /><path
       style="opacity:0.1;fill:#ffffff"
       d="M 53.910156,9.9160156 A 6.0006,6.0006 0 0 0 48,16 v 1 A 6.0006,6.0006 0 0 1 53.910156,10.916016 6.0006,6.0006 0 0 1 60,17 V 16 A 6.0006,6.0006 0 0 0 53.910156,9.9160156 Z"
       id="path6-7" /><path
       style="opacity:0.2;fill:#ffffff"
       d="m 38.013672,9.921875 a 6.0006,6.0006 0 0 0 -5.511719,3.675781 l -13.978515,32 a 6.0006,6.0006 0 0 0 -0.511719,3.00586 6.0006,6.0006 0 0 1 0.511719,-2.00586 l 13.978515,-32 a 6.0006,6.0006 0 0 1 5.511719,-3.675781 6.0006,6.0006 0 0 1 5.99414,5.480469 6.0006,6.0006 0 0 0 -5.99414,-6.480469 z"
       id="path7" /></g></svg>

<svg xmlns="http://www.w3.org/2000/svg" width="64" height="64" version="1.1">
 <path style="opacity:0.2" d="M 53.910156,10.916213 A 6.0006,6.0006 0 0 0 48,17.000197 v 32 a 6.0006,6.0006 0 1 0 12,0 v -32 a 6.0006,6.0006 0 0 0 -6.089844,-6.083984 z m -15.896484,0.0059 a 6.0006,6.0006 0 0 0 -5.511719,3.675781 l -8.488281,19.431641 -8.517578,-19.4375 A 6.0006,6.0006 0 0 0 9.796875,10.924025 6.0006,6.0006 0 0 0 4.5039062,19.4084 L 18.199219,50.660353 a 6.0006,6.0006 0 0 0 4.164062,4.189453 6.0006,6.0006 0 0 0 0.308594,0.07813 6.0006,6.0006 0 0 0 0.185547,0.04102 6.0006,6.0006 0 0 0 7.023437,-4.394531 L 43.498047,19.402541 a 6.0006,6.0006 0 0 0 -5.484375,-8.480469 z"/>
 <path style="fill:none;stroke:#c0562a;stroke-width:12;stroke-linecap:round;stroke-linejoin:round" d="M 10,16 24.022016,48"/>
 <path style="opacity:0.1;fill:#ffffff" d="M 9.796875 9.9238281 A 6.0006 6.0006 0 0 0 3.9921875 16.429688 A 6.0006 6.0006 0 0 1 9.796875 10.923828 A 6.0006 6.0006 0 0 1 15.496094 14.591797 L 29.517578 46.591797 A 6.0006 6.0006 0 0 1 30.037109 48.59375 A 6.0006 6.0006 0 0 0 29.517578 45.591797 L 15.496094 13.591797 A 6.0006 6.0006 0 0 0 9.796875 9.9238281 z"/>
 <path style="fill:none;stroke:#c0562a;stroke-width:12;stroke-linecap:round;stroke-linejoin:round" d="M 54,16 V 48"/>
 <path style="fill:none;stroke:#ea8c46;stroke-width:12;stroke-linecap:round;stroke-linejoin:round" d="M 38,16 24.022016,48"/>
 <path style="opacity:0.1;fill:#ffffff" d="M 53.910156 9.9160156 A 6.0006 6.0006 0 0 0 48 16 L 48 17 A 6.0006 6.0006 0 0 1 53.910156 10.916016 A 6.0006 6.0006 0 0 1 60 17 L 60 16 A 6.0006 6.0006 0 0 0 53.910156 9.9160156 z"/>
 <path style="opacity:0.2;fill:#ffffff" d="M 38.013672 9.921875 A 6.0006 6.0006 0 0 0 32.501953 13.597656 L 18.523438 45.597656 A 6.0006 6.0006 0 0 0 18.011719 48.603516 A 6.0006 6.0006 0 0 1 18.523438 46.597656 L 32.501953 14.597656 A 6.0006 6.0006 0 0 1 38.013672 10.921875 A 6.0006 6.0006 0 0 1 44.007812 16.402344 A 6.0006 6.0006 0 0 0 38.013672 9.921875 z"/>
</svg>
